X:916
T:East Clare Reel
R:reel
C:Peadar O Riada
Z:id:hn-reel-916
M:C|
L:1/8
K:G
dGAG EG~G2 | dGBd edd2 | dGAG EG~G2 | dGef ag~g2 |
dGAG EG~G2 | dGAG EFG2 | dGAG EFGA | Bdef ag~g2 ||
|: Bded g2fe | d2BG edd2 |1 Bded g2fe | dBde ag~g2 :|2 gfed eBde | Bdef ag~g2 ||

